modules/coreui-icons-free/icons/bluetooth.svg

<!-- Generated by IcoMoon.io -->
<svg version="1.1" xmlns="http://www.w3.org/2000/svg" width="24" height="24" viewBox="0 0 24 24">
<title>bluetooth</title>
<path d="M18.311 6.375l-5.625-5.625h-1.811v9.439l-3.814-3.814h-2.121l5.625 5.625-5.625 5.625h2.121l3.814-3.814v9.439h1.811l5.625-5.625-5.625-5.625zM12.375 2.561l3.814 3.814-3.814 3.814zM16.189 17.625l-3.814 3.814v-7.629z"></path>
</svg>

<svg xmlns="http://www.w3.org/2000/svg" width="24" height="24" viewBox="0 0 24 24"><path d="M18.311 6.375L12.686.75h-1.811v9.439L7.061 6.375H4.94L10.565 12 4.94 17.625h2.121l3.814-3.814v9.439h1.811l5.625-5.625L12.686 12zm-5.936-3.814l3.814 3.814-3.814 3.814zm3.814 15.064l-3.814 3.814V13.81z"/></svg>
